X:1
T:Masefiäng
R:Varsovienne
S:Efter John Björklund
O:Ersnäs, Norrbotten
Z:ABC-transkribering av Johan Dahlberg
N:Variant på Mazurka
M:3/4
L:1/8
K:D
A3/2d/2 f2{/a}f2|A3/2d/2 f2{/a}f2|g3/2f/2 d2 f2|e2 z4z4|
A3/c/2 e2{/g}e2|A3/c/2 e2{/g}e2|g3/2e/2 c2e2|d6:|

